src/assets/arrowDown.svg

<svg height="20" viewBox="0 0 20 20" width="20" xmlns="http://www.w3.org/2000/svg"><g fill="#1a4977"><g transform="translate(5 4)"><path d="m5 11.184c-.59865458 0-1.08396-.4853054-1.08396-1.08396v-8.62656c0-.59867115.48531885-1.08399 1.08399-1.08399s1.08399.48531885 1.08399 1.08399v8.62632c.00006366.287536-.11411907.5633163-.31742088.7666518-.20330181.2033356-.47906307.3175641-.76659912.3175482z"/><g transform="translate(0 5)"><path d="m5 6.61048c-.43843614.00001985-.83370984-.26407876-1.00149478-.66913983-.16778493-.40506106-.07503631-.87130893.23499478-1.18132017l3.7041-3.7041c.27384407-.27384407.67298051-.38079236 1.04705847-.28055847s.66626611.39242204.7665.7665-.0067144.7732144-.28055847 1.04705847l-3.7041 3.7041c-.20308203.20359294-.4789374.31784349-.7665.31746z"/><path d="m5 6.61048c-.2875626.00038349-.56341797-.11386706-.7665-.31746l-3.7041-3.7041c-.42332625-.42332626-.42332624-1.10967373.00000001-1.53299999.42332626-.42332625 1.10967373-.42332626 1.53299999-.00000001l3.7041 3.7041c.31003109.31001124.40277971.77625911.23499478 1.18132017-.16778494.40506107-.56305864.66915968-1.00149478.66913983z"/></g></g><path d="m10 19.62754c-4.93037615-.0056788-9.05499799-3.7449483-9.54269621-8.6511476-.48769823-4.90619929 2.82008187-9.38428282 7.65285686-10.36046267 4.83277505-.97617985 9.61937005 1.86690805 11.07423285 6.57774827 1.4548628 4.7108402-.8949946 9.7578999-5.4366135 11.676842-1.1856082.5019076-2.4603126.7593871-3.74778.75702zm0-17.08716c-3.55876353.00001387-6.62193511 2.51391308-7.31620283 6.00429847-.69426771 3.49038543 1.1737315 6.98513693 4.46160481 8.34700583 3.28787332 1.3618689 7.07990312.2115561 9.05703712-2.7474537 1.9771341-2.9590097 1.5887137-6.90259171-.9277191-9.4190106-1.3958832-1.40351236-3.2952484-2.19024778-5.27472-2.18484z"/></g></svg>

<?xml version="1.0" encoding="UTF-8"?>
<svg width="20px" height="20px" viewBox="0 0 20 20" version="1.1" xmlns="http://www.w3.org/2000/svg" xmlns:xlink="http://www.w3.org/1999/xlink">
    <!-- Generator: Sketch 46 (44423) - http://www.bohemiancoding.com/sketch -->
    <title>download-icon</title>
    <desc>Created with Sketch.</desc>
    <defs></defs>
    <g id="Welcome" stroke="none" stroke-width="1" fill="none" fill-rule="evenodd">
        <g id="MVP-Minimal-version" transform="translate(-970.000000, -535.000000)" fill-rule="nonzero" fill="#1A4977">
            <g id="#1---Home" transform="translate(83.000000, 189.000000)">
                <g id="#-1---Connect-Wallet!" transform="translate(537.000000, 0.000000)">
                    <g id="Group-18" transform="translate(164.000000, 332.000000)">
                        <g id="download-icon" transform="translate(186.000000, 14.000000)">
                            <g id="Group" transform="translate(5.000000, 4.000000)">
                                <path d="M5,11.184 C4.40134542,11.184 3.91604,10.6986946 3.91604,10.10004 L3.91604,1.47348 C3.91604,0.874808854 4.40135885,0.38949 5.00003,0.38949 C5.59870115,0.38949 6.08402,0.874808854 6.08402,1.47348 L6.08402,10.0998 C6.08408366,10.387336 5.96990093,10.6631163 5.76659912,10.8664518 C5.56329731,11.0697874 5.28753605,11.1840159 5,11.184 L5,11.184 Z" id="Shape"></path>
                                <g transform="translate(0.000000, 5.000000)" id="Shape">
                                    <path d="M5,6.61048 C4.56156386,6.61049985 4.16629016,6.34640124 3.99850522,5.94134017 C3.83072029,5.53627911 3.92346891,5.07003124 4.2335,4.76002 L7.9376,1.05592 C8.21144407,0.782075925 8.61058051,0.67512764 8.98465847,0.775361528 C9.35873643,0.875595416 9.65092458,1.16778357 9.75115847,1.54186153 C9.85139236,1.91593949 9.74444407,2.31507593 9.4706,2.58892 L5.7665,6.29302 C5.56341797,6.49661294 5.2875626,6.61086349 5,6.61048 Z"></path>
                                    <path d="M5,6.61048 C4.7124374,6.61086349 4.43658203,6.49661294 4.2335,6.29302 L0.5294,2.58892 C0.10607375,2.16559374 0.106073755,1.47924627 0.529400011,1.05592001 C0.952726268,0.632593755 1.63907374,0.63259375 2.0624,1.05592 L5.7665,4.76002 C6.07653109,5.07003124 6.16927971,5.53627911 6.00149478,5.94134017 C5.83370984,6.34640124 5.43843614,6.61049985 5,6.61048 Z"></path>
                                </g>
                            </g>
                            <path d="M10,19.62754 C5.06962385,19.6218612 0.945002005,15.8825917 0.457303785,10.9763924 C-0.0303944361,6.07019311 3.27738566,1.59210958 8.11016065,0.615929732 C12.9429357,-0.36025012 17.7295307,2.48283778 19.1843935,7.193678 C20.6392563,11.9045182 18.2893989,16.9515779 13.74778,18.87052 C12.5621718,19.3724276 11.2874674,19.6299071 10,19.62754 L10,19.62754 Z M10,2.54038 C6.44123647,2.54039387 3.37806489,5.05429308 2.68379717,8.54467847 C1.98952946,12.0350639 3.85752867,15.5298154 7.14540198,16.8916843 C10.4332753,18.2535532 14.2253051,17.1032404 16.2024391,14.1442306 C18.1795732,11.1852209 17.7911528,7.24163889 15.27472,4.72522 C13.8788368,3.32170764 11.9794716,2.53497222 10,2.54038 L10,2.54038 Z" id="Shape"></path>
                        </g>
                    </g>
                </g>
            </g>
        </g>
    </g>
</svg>
